X: 4
T: The Headlands
R: strathspey
M: 4/4
L: 1/8
K: Amaj
cBAG G<BD>G | EGce d3 e/f/ | g>f ef/g/ edcB | B>AGB A3 d/c/ |cBAG G<BD>G | E>G (3cde g3 f/e/ | dgGB Aedc | B2 G>F G2 :|g>deg B<dBG | cGce d3 e/f/ | g>deg e<dcB |1 B>AG<B A3 e/f/ |gg/f/ ee/d/ B/c/d BG | c>Gce g2 fe | dgGB Aedc | B2 G>G G2 :|cBAG G<BD>G | EGce g2 fe | dgGB Aed>c | B2 G2 G2 ||d>cB<A A>cEA | F>Ad<f e2 (3efg | a>ef<a f>edc | c>BA<c B2 e<c |d>cB<A A>cEA | F>Ad<f a2 g>f | e<ae<c B>fed | c2 A2 A2 :|a>ef<a c<ec<A | d>Ad<f e2 (3efg | a>ef<a f>edc |1 c>BAc B2 (3efg |a>ef<a c>ec<A | d>cd<f a2 gf | e<ae<c B>fed | c>A (3AAA A2 :|d>cB<A A<cEA | fA (3def a3 g/f/ | e<ae<c B>fed | c3 A A2 :|


Tune 1950	Setting 29587

